X:515
T:O'Mahony's Hornpipe
M:4/4
L:1/8
K:G
|: ge|dBAB GFGA|BGBd gfga|bage dBGB|BAAG A2 ge|
dBAB GGGA|BGBd ggga|bage dBAB|G2 GF G z :|
|:ga|bagb abga|bagb abga|b2 ba gedB|BAAG A2 ge|
dBAB GFGA|B/A/G Bd gfga|bage dBAB|G2 GF G z :|
